X:189
T:Guillermo
C:Billy Bright
N:Transcribed by Greg Rohrer grrohrer@hotmail.com
R:bluegrass
L:1/8
Q:1/4=220
M:4/4
K:C
G,4 G,4 | "G"B,A, G,A, B,G, A,B, | "C"CB, CD E4 | "D"^FE DE2D EF | "G"GD GD ED B,A, | 
B,A, G,A, B,G, A,B, | "C"CB, CD E4 | "D"^FE DE2D EF | "G"G2 B,2 D4 | B,A, G,A, B,G, A,B, | 
"C"CB, CD E4 | "D"^FE DE2D EF | "G"GD GD ED B,A, | B,A, G,A, B,G, A,B, | "C"CB, CE DC DE | 
"D"^FE DE FD EF | "G"G2 B,2 D4 | "G"[gB][gB] [gB][gB] [gB][gB] [gB][gB] | BA GE DE D2 | 
[gB][gB] [gB][gB] BA G2 | {D}"Em"E2 [EB,][EB,] [EB,][EB,] [EB,][EB,] | "G"[gB][gB] [gB][gB] [gB][gB] [gB][gB] | 
BA GE DE D2 | [gB][gB] [gB][gB] BA G2 | {D}"Em"E2 [EB,][EB,] [EB,][EB,] [EB,][EB,] | 
"D"D2 DE ^FD EF | "G"G2 [gB][gB] [gB][gB] [gB][gB] | BA GE DE D2 | [gB][gB] [gB][gB] BA G2 | 
{D}"Em"E2 [EB,][EB,] [EB,][EB,] [EB,][EB,] | "G"[gB][gB] [gB][gB] [gB][gB] [gB][gB] | 
BA GE DE D2 | [gB][gB] [gB][gB] BA G2 | {D}"Em"E2 [EB,][EB,] [EB,][EB,] a^f | 
"D"ed BA dB A^F | "G"G4 [g4B4D4G,4] | 


